!!!COM:	Pierre de la Rue
**kern	**kern
*part2	*part1
*staff2	*staff1
*clefF4	*clefF4
*k[]	*k[]
*M2/1	*M2/1
=1-	=1-
2.G	1r
4F	.
2G	1r
2A	.
=2	=2
2A	2.c
4G	.
4F	4B
2E	2c
[2D	2d
=3	=3
2D]	2d
2G	4c
.	4B
2F	2A
4E	[2G
4D	.
=4	=4
1E	2G]
.	2c
2D	2B
2G	4A
.	4G
=5	=5
2F	1A
4E	.
4D	.
1E	2G
.	2c
=6	=6
2D	2B
1G	4A
.	4G
.	1A
2F	.
=7	=7
2E	2G
1A	1c
2G	2B
=8	=8
2A	2A
2F	1d
1E	.
.	2c
=9	=9
0D	2d
.	2B
.	1A
=10	=10
1r	0G
[1G	.
=11	=11
2G]	1r
1.E	.
.	[1c
=12	=12
1.C	2c]
.	1.A
[2AA	.
=13	=13
1AA]	1.F
[1A	.
.	[2D
=14	=14
2A]	1D]
1.F	.
.	[1d
=15	=15
0D	2d]
.	1.B
=16	=16
2r	0G
1G	.
4F	.
4E	.
=17	=17
2D	2r
1E	1c
2D	4B
.	4A
=18	=18
2E	2G
2C	1A
1BB	.
.	2G
=19	=19
0AA	2A
.	2F
.	1E
=20	=20
1r	0D
1A	.
=21	=21
1A	1r
1D	1d
=22	=22
0G	1d
.	1G
=23	=23
3.C	0c
6D	.
3E	.
3F	.
3E	.
3F	.
=24	=24
3.D	3.F
6E	6G
3F	3A
3G	3B
3F	3A
3G	3B
=25	=25
3.E	3.G
6F	6A
3G	3B
3A	3c
3G	3B
3A	3c
=26	=26
1F	3.A
.	6B
.	3c
1D	3d
.	3c
.	3d
=27	=27
2r	1B
2.G	.
.	1G
4F	.
4E	.
4D	.
=28	=28
1C	2r
.	2.c
3C	.
.	4B
3D	.
.	4A
3E	.
.	4G
=29	=29
2AA	1F
1D	.
.	3F
.	3G
2C	.
.	3A
=30	=30
2D	2D
2GG	1G
1AA	.
.	2F
=31	=31
0GG	0G
==	==
*-	*-
